X: 29
T:Irish Air. ST.29
T:William & Nancy,aka. ST.29
M:6/8
L:1/8
Q:110
S:Annonymous Staffordshire MS, Early 19thC.
R:March
O:England
A:Staffordshire
N:The tune for the William & Nancy Morris dance, Bledington tradition...
Z:vmp.Tim Willets     
K:Bb
"Allegro"B2B BFD|f2f fdB|B2c dcd|G2AB3:|!
|:Bdf b2b|agf (gf).e|Bdf b2b|agf g2a|!
b2b afd|g2g fdB|B2c dcd|G2AB3:|]
